X:1
T:Dixie's Land
M:2/4
L:1/8
K:C
 z2 zG/2-E/2| CCC/2-D/2 E/2F/2| GG GE| AA A3/2 G/2| A3/2 G/2A/2 B/2c/2 d/2|\
 e3 c/2G/2| c3 G/2E/2| G3 D/2E/2| C2 zG/2-E/2| CCC/2-D/2E/2-F/2| GG GE|\
 AA A3/2 G/2| A3/2 G/2A/2 B/2c/2 d/2| e3 c/2G/2| c3 G/2E/2| G3 D/2E/2|\
 C2 z G/2B/2| ce dc| A c2 A| d3 A| d3G/2-B/2| ce d3/2 c/2| AB c3/2 A/2|\
 GE c3/2 E/2| E D2 E| C3 E| D3 A| GE c3/2 e/2| d c2 E| C3 E| D3 A|\
 GE e3/2 c/2| d c2 z|
